X:1
T:Llanherne, 87.887
T:Llanherne, 87.887
T:George Thomas Thalben-Ball (1896-1987)
T:Public Domain Courtesy of the Cyber Hymnal™
C:George Thomas Thalben-Ball (1896-1987)
Z:Public Domain
Z:Courtesy of the Cyber Hymnal™
%%score ( 1 2 ) ( 3 4 )
L:1/8
Q:1/4=113
M:4/4
K:G
V:1 treble 
V:2 treble 
V:3 bass 
V:4 bass 
V:1
 [B,G]2 D2 E2 [A,D]2 | GF GA [DB]2 [DG]2 | d3 [Fc] [GB]2 cA | [DG]2 F2 [B,G]4 | %4
 [DA]2 [DB]2 G3 z A | FE FG [EA]2 [DF]2 | [DB]2 [E^c]2 [Dd]2 [DF]2 | [DG]2 FE [DA]2 D2 | %8
 [B,E]2 [DF]2 GA [DB][Ec] | A3 z G [B,G]4 |] %10
V:2
 x2 D2 CB, x2 | D2 D2 x4 | D2 E x E2 x2 | x2 DC x4 | x4 E2 E2 x | D2 D2 x4 | x8 | x2 ^C2 x D2 x | %8
 x4 D2 x2 | D2 C2 x5 |] %10
V:3
 [G,,D,]2 [B,,G,]2 [C,G,]2 F,2 | [B,,G,][D,A,] [E,D][F,C] [G,B,]2 [G,B,]2 | %2
 [B,D]3 [A,D] [G,D]2 [C,C]2 | [D,B,]2 [D,A,]2 [G,,G,]4 | [D,F,]2 [D,F,]2 [D,B,]2 [^C,A,]2 x | %5
 A,G, A,B, [^C,A,]2 [D,A,]2 | G,2 [E,G,]2 [F,A,]2 B,2 | [C,B,]2 A,2 [F,A,][E,G,] [D,F,]2 | %8
 [D,G,]2 [C,A,]2 [B,,G,][D,F,] G,2 | [D,G,]2 [D,F,]2 [G,,G,]4 x |] %10
V:4
 x6 D,C, | x8 | x8 | x8 | x9 | D,2 B,,2 x4 | G,F, x3 B,2 x | x2 A,G, x4 | x6 G,C, | x9 |] %10

